X:214
T:Polska efter Anders Bredal
R:sl\"angpolska
H:efter Nils Bernhard Ljunggren, Markaryd, som hade den efter
H:Anders Bredal, Markaryd. Andra delen jfr #214
A:Sm{\aa}land
D:Anders Norudde: Kan sj\"alv!
Z:id:hn-sp-214
M:3/4
L:1/16
K:A
d | c2Bc A2A2 A2Bc | dedc BcBA G2Ed | c2Bc A2A2 A2Bc |
dedc BcBA G2E2 |1 c2A2 d2B2 e2c2 | BcBA GAGF E3 :|2 c2A2 d2B2 e3c |
dBGB B2A2 A4 |: EFGA B2B2 c2c2 | d2d2 c2c2 B2B2 | EFGA B2BB c2cc |
d2dd c2cc B4 | e4 c2ec A3c | d4 BdBG E2E2 | EFGA BcdB cecA |
BdBG G2A2 A4 :|
<end>
<start>
